assets/svg/1F47F.svg

<svg xmlns="http://www.w3.org/2000/svg" viewBox="0 0 64 64" enable-background="new 0 0 64 64"><path fill="#bf84ce" d="m62.55 1.455c-1.463-3.972-6.123 3.02-9.146 6.893-3.03 3.874-5.779 7.263-2.443 9.869 3.341 2.612 4.366 14.07 7.391 10.194 3.02-3.869 5.836-22.507 4.198-26.956"/><path fill="#a776b7" d="m1.357 1.455c1.463-3.973 6.123 3.02 9.147 6.892 3.03 3.874 5.778 7.263 2.443 9.869-3.341 2.612-4.367 14.07-7.39 10.194-3.03-3.868-5.837-22.506-4.2-26.955"/><circle fill="#bf84ce" cx="31.953" cy="32.02" r="31.75"/><g fill="#fff"><path d="m27.373 31.32c0 5.338-2.888 9.663-6.453 9.663-3.564 0-6.453-4.322-6.453-9.663 0-5.337 2.888-9.663 6.453-9.663s6.453 4.326 6.453 9.663"/><path d="m49.21 31.32c0 5.338-2.891 9.663-6.453 9.663-3.564 0-6.453-4.322-6.453-9.663 0-5.337 2.889-9.663 6.453-9.663 3.562 0 6.453 4.326 6.453 9.663"/></g><g fill="#25333a"><ellipse cx="20.92" cy="31.32" rx="4.175" ry="5.063"/><ellipse cx="42.756" cy="31.32" rx="4.176" ry="5.063"/></g><path fill="#a776b7" d="m15.312 41.21c-5.625-12.07-5.878-25.07-.79-35.808-8.62 5.679-14.32 15.43-14.32 26.526 0 17.534 14.214 31.748 31.751 31.748.314 0 .615-.037.927-.048-7.276-6.125-13.409-13.498-17.568-22.418"/><g fill="#6e3a84"><path d="m30.942 29.27c-2.579-9.167-11.263-12.188-19.997-12.287-2.551-.029-3.133 3.951-.545 3.98 7.353.083 14.6 1.932 16.812 9.798.703 2.495 4.424.978 3.73-1.491"/><path d="m32.902 29.27c2.578-9.167 11.264-12.188 19.996-12.287 2.552-.029 3.134 3.951.545 3.98-7.354.083-14.601 1.932-16.812 9.798-.701 2.495-4.423.978-3.729-1.491"/><path d="m36.816 56.703c-1.037.354-2.072.063-2.313-.646l0 0c-.238-.709.407-1.572 1.443-1.923l4.398-1.479c1.035-.352 2.071-.057 2.311.652l0 0c.238.707-.407 1.566-1.442 1.914l-4.397 1.482"/></g></svg>

<?xml version="1.0" encoding="utf-8"?>
<!-- Generator: Adobe Illustrator 16.0.0, SVG Export Plug-In . SVG Version: 6.00 Build 0)  -->
<!DOCTYPE svg PUBLIC "-//W3C//DTD SVG 1.1//EN" "http://www.w3.org/Graphics/SVG/1.1/DTD/svg11.dtd">
<svg version="1.1"
	 id="Layer_1" xmlns:svg="http://www.w3.org/2000/svg" xmlns:dc="http://purl.org/dc/elements/1.1/" xmlns:rdf="http://www.w3.org/1999/02/22-rdf-syntax-ns#" xmlns:inkscape="http://www.inkscape.org/namespaces/inkscape" xmlns:cc="http://creativecommons.org/ns#" xmlns:sodipodi="http://sodipodi.sourceforge.net/DTD/sodipodi-0.dtd" inkscape:version="0.48.5 r10040" inkscape:export-filename="D:\TESTINGEMOJI\SVGTEST\1F47F.png" inkscape:export-ydpi="90" inkscape:export-xdpi="90" sodipodi:docname="1F47F.svg"
	 xmlns="http://www.w3.org/2000/svg" xmlns:xlink="http://www.w3.org/1999/xlink" x="0px" y="0px" width="64px" height="64px"
	 viewBox="0 0 64 64" enable-background="new 0 0 64 64" xml:space="preserve">
<sodipodi:namedview  id="namedview5328" inkscape:cx="32" inkscape:cy="32" pagecolor="#ffffff" objecttolerance="10" borderopacity="1" inkscape:zoom="3.6875" bordercolor="#666666" guidetolerance="10" gridtolerance="10" showgrid="false" inkscape:pageshadow="2" inkscape:pageopacity="0" inkscape:window-height="480" inkscape:window-width="640" inkscape:window-x="712" inkscape:window-maximized="0" inkscape:window-y="285" inkscape:current-layer="Layer_1">
	</sodipodi:namedview>
<path id="path5306" fill="#BF84CE" d="M62.548,1.455c-1.463-3.972-6.123,3.024-9.146,6.893c-3.03,3.874-5.779,7.263-2.443,9.869
	c3.341,2.612,4.366,14.067,7.391,10.194C61.374,24.542,64.186,5.904,62.548,1.455z"/>
<path id="path5308" fill="#A776B7" d="M1.357,1.455C2.82-2.518,7.48,4.479,10.504,8.347c3.029,3.874,5.778,7.263,2.443,9.869
	C9.606,20.828,8.58,32.283,5.557,28.41C2.532,24.542-0.28,5.904,1.357,1.455z"/>
<circle id="circle5310" fill="#BF84CE" cx="31.953" cy="32.024" r="31.75"/>
<path id="path5312" fill="#FFFFFF" d="M27.373,31.316c0,5.338-2.888,9.663-6.453,9.663c-3.564,0-6.453-4.322-6.453-9.663
	c0-5.337,2.888-9.663,6.453-9.663S27.373,25.979,27.373,31.316z"/>
<path id="path5314" fill="#FFFFFF" d="M49.209,31.316c0,5.338-2.891,9.663-6.453,9.663c-3.564,0-6.453-4.322-6.453-9.663
	c0-5.337,2.889-9.663,6.453-9.663C46.318,21.653,49.209,25.979,49.209,31.316z"/>
<ellipse id="ellipse5316" fill="#25333A" cx="20.92" cy="31.316" rx="4.175" ry="5.063"/>
<ellipse id="ellipse5318" fill="#25333A" cx="42.756" cy="31.316" rx="4.176" ry="5.063"/>
<path id="path5320" fill="#A776B7" d="M15.312,41.214c-5.625-12.072-5.878-25.067-0.79-35.808c-8.62,5.679-14.32,15.43-14.32,26.526
	c0,17.534,14.214,31.748,31.751,31.748c0.314,0,0.615-0.037,0.927-0.048C25.604,57.507,19.471,50.134,15.312,41.214z"/>
<path id="path5322" fill="#6E3A84" d="M30.942,29.265c-2.579-9.167-11.263-12.188-19.997-12.287
	c-2.551-0.029-3.133,3.951-0.545,3.98c7.353,0.083,14.6,1.932,16.812,9.798C27.915,33.251,31.636,31.734,30.942,29.265z"/>
<path id="path5324" fill="#6E3A84" d="M32.902,29.265c2.578-9.167,11.264-12.188,19.996-12.287c2.552-0.029,3.134,3.951,0.545,3.98
	c-7.354,0.083-14.601,1.932-16.812,9.798C35.93,33.251,32.208,31.734,32.902,29.265z"/>
<path id="path5326" fill="#6E3A84" d="M36.816,56.703c-1.037,0.354-2.072,0.063-2.313-0.646l0,0
	c-0.238-0.709,0.407-1.572,1.443-1.923l4.398-1.479c1.035-0.352,2.071-0.057,2.311,0.652l0,0c0.238,0.707-0.407,1.566-1.442,1.914
	L36.816,56.703z"/>
</svg>
